GitServer/wwwroot/img/file.svg

<svg xmlns="http://www.w3.org/2000/svg" viewBox="0 0 96 96"><path d="M48 34.1H29.4v-4.6H48v4.6zM29.4 48h32.5v-4.6H29.4V48zm0 9.3h32.5v-4.6H29.4v4.6zm0 9.3h32.5V62H29.4v4.6zm46.5-34.8v44.1c0 2.6-2.1 4.6-4.6 4.6H24.8c-2.6 0-4.6-2.1-4.6-4.6V20.1c0-2.6 2.1-4.6 4.6-4.6h34.8l16.3 16.3zm-4.7 2.3l-13.9-14H24.8v55.7h46.4V34.1z" fill="#333"/></svg>

<?xml version="1.0" encoding="utf-8"?>
<!-- Generator: Adobe Illustrator 19.0.0, SVG Export Plug-In . SVG Version: 6.00 Build 0)  -->
<svg version="1.1" id="Layer_1" xmlns="http://www.w3.org/2000/svg" xmlns:xlink="http://www.w3.org/1999/xlink" x="0px" y="0px"
	 viewBox="0 0 96 96" style="enable-background:new 0 0 96 96;" xml:space="preserve">
<style type="text/css">
	.st0{fill:#333333;}
</style>
<g id="XMLID_1_">
	<path id="XMLID_9_" class="st0" d="M48,34.1H29.4v-4.6H48V34.1z M29.4,48h32.5v-4.6H29.4V48z M29.4,57.3h32.5v-4.6H29.4V57.3z
		 M29.4,66.6h32.5v-4.6H29.4V66.6z M75.9,31.8v44.1c0,2.6-2.1,4.6-4.6,4.6H24.8c-2.6,0-4.6-2.1-4.6-4.6V20.1c0-2.6,2.1-4.6,4.6-4.6
		h34.8L75.9,31.8z M71.2,34.1L57.3,20.1H24.8v55.7h46.4V34.1z"/>
</g>
</svg>
